src/assets/sad-face.svg

<?xml version="1.0" encoding="UTF-8" standalone="no"?>
<svg
   xmlns:dc="http://purl.org/dc/elements/1.1/"
   xmlns:cc="http://creativecommons.org/ns#"
   xmlns:rdf="http://www.w3.org/1999/02/22-rdf-syntax-ns#"
   xmlns:svg="http://www.w3.org/2000/svg"
   xmlns="http://www.w3.org/2000/svg"
   xmlns:sodipodi="http://sodipodi.sourceforge.net/DTD/sodipodi-0.dtd"
   xmlns:inkscape="http://www.inkscape.org/namespaces/inkscape"
   width="912"
   height="439"
   viewBox="0 0 912 439"
   fill="none"
   version="1.1"
   id="svg10"
   sodipodi:docname="sad-face.svg"
   inkscape:version="1.0.1 (3bc2e813f5, 2020-09-07)">
  <metadata
     id="metadata16">
    <rdf:RDF>
      <cc:Work
         rdf:about="">
        <dc:format>image/svg+xml</dc:format>
        <dc:type
           rdf:resource="http://purl.org/dc/dcmitype/StillImage" />
        <dc:title></dc:title>
      </cc:Work>
    </rdf:RDF>
  </metadata>
  <defs
     id="defs14" />
  <sodipodi:namedview
     pagecolor="#ffffff"
     bordercolor="#666666"
     borderopacity="1"
     objecttolerance="10"
     gridtolerance="10"
     guidetolerance="10"
     inkscape:pageopacity="0"
     inkscape:pageshadow="2"
     inkscape:window-width="1920"
     inkscape:window-height="1001"
     id="namedview12"
     showgrid="false"
     inkscape:zoom="1.1819066"
     inkscape:cx="514"
     inkscape:cy="219.5"
     inkscape:window-x="-9"
     inkscape:window-y="-9"
     inkscape:window-maximized="1"
     inkscape:current-layer="svg10" />
  <path
     d="m 221.295,114.085 c 0,-14.5055 5.195,-26.9529 15.584,-37.3421 10.389,-10.3892 22.837,-15.5838 37.343,-15.5838 14.505,0 26.953,5.1946 37.342,15.5838 10.389,10.3892 15.584,22.8366 15.584,37.3421 0,14.506 -5.195,26.953 -15.584,37.343 -10.389,10.389 -22.837,15.583 -37.342,15.583 -9.606,0 -18.427,-2.45 -26.463,-7.35 -8.037,-4.705 -14.506,-11.076 -19.407,-19.113 -4.704,-7.841 -7.057,-16.662 -7.057,-26.463 z m 335.199,0 c 0,-14.5055 5.195,-26.9529 15.584,-37.3421 10.389,-10.3892 22.837,-15.5838 37.342,-15.5838 14.506,0 26.954,5.1946 37.343,15.5838 10.389,10.3892 15.584,22.8366 15.584,37.3421 0,14.506 -5.195,26.953 -15.584,37.343 -10.389,10.389 -22.837,15.583 -37.343,15.583 -9.605,0 -18.426,-2.45 -26.463,-7.35 -8.037,-4.705 -14.505,-11.076 -19.406,-19.113 -4.704,-7.841 -7.057,-16.662 -7.057,-26.463 z"
     fill="#000000"
     fill-opacity="0.1"
     id="path2" />
  <path
     d="m 454.045,227.21 c 74.097,0 142.215,9.605 204.354,28.816 62.335,19.406 119.672,47.045 172.01,82.917 v 61.159 c -19.406,-14.113 -43.321,-27.345 -71.744,-39.694 -28.227,-12.154 -59.297,-22.837 -93.209,-32.05 -33.716,-9.213 -68.608,-16.466 -104.676,-21.759 -36.068,-5.096 -71.646,-7.644 -106.735,-7.644 -46.653,0 -93.992,4.508 -142.018,13.525 -48.026,9.017 -92.621,21.171 -133.786,36.46 -41.164,15.29 -74.684,32.344 -100.5592,51.162 V 338.943 C 130.02,303.071 187.259,275.432 249.398,256.026 311.733,236.815 379.949,227.21 454.045,227.21 Z"
     fill="#000000"
     fill-opacity="0.1"
     id="path4" />
  <path
     d="M 133,38.5 C 235.4,53.7 299.333,28.5 318.5,14"
     stroke="#000000"
     stroke-opacity="0.1"
     stroke-width="25"
     id="path6" />
  <path
     d="M 739,38.3236 C 636.324,53.4142 572.218,28.3956 553,14"
     stroke="#000000"
     stroke-opacity="0.1"
     stroke-width="25"
     id="path8" />
</svg>

<svg width="1028" height="439" viewBox="0 0 1028 439" fill="none" xmlns="http://www.w3.org/2000/svg">
<path d="M221.295 114.085C221.295 99.5795 226.49 87.1321 236.879 76.7429C247.268 66.3537 259.716 61.1591 274.222 61.1591C288.727 61.1591 301.175 66.3537 311.564 76.7429C321.953 87.1321 327.148 99.5795 327.148 114.085C327.148 128.591 321.953 141.038 311.564 151.428C301.175 161.817 288.727 167.011 274.222 167.011C264.616 167.011 255.795 164.561 247.759 159.661C239.722 154.956 233.253 148.585 228.352 140.548C223.648 132.707 221.295 123.886 221.295 114.085ZM556.494 114.085C556.494 99.5795 561.689 87.1321 572.078 76.7429C582.467 66.3537 594.915 61.1591 609.42 61.1591C623.926 61.1591 636.374 66.3537 646.763 76.7429C657.152 87.1321 662.347 99.5795 662.347 114.085C662.347 128.591 657.152 141.038 646.763 151.428C636.374 161.817 623.926 167.011 609.42 167.011C599.815 167.011 590.994 164.561 582.957 159.661C574.92 154.956 568.452 148.585 563.551 140.548C558.847 132.707 556.494 123.886 556.494 114.085Z" fill="black" fill-opacity="0.1"/>
<path d="M454.045 227.21C528.142 227.21 596.26 236.815 658.399 256.026C720.734 275.432 778.071 303.071 830.409 338.943V400.102C811.003 385.989 787.088 372.757 758.665 360.408C730.438 348.254 699.368 337.571 665.456 328.358C631.74 319.145 596.848 311.892 560.78 306.599C524.712 301.503 489.134 298.955 454.045 298.955C407.392 298.955 360.053 303.463 312.027 312.48C264.001 321.497 219.406 333.651 178.241 348.94C137.077 364.23 103.557 381.284 77.6818 400.102V338.943C130.02 303.071 187.259 275.432 249.398 256.026C311.733 236.815 379.949 227.21 454.045 227.21Z" fill="black" fill-opacity="0.1"/>
<path d="M133 38.5C235.4 53.7 299.333 28.5 318.5 14" stroke="black" stroke-opacity="0.1" stroke-width="25"/>
<path d="M739 38.3236C636.324 53.4142 572.218 28.3956 553 14" stroke="black" stroke-opacity="0.1" stroke-width="25"/>
</svg>
